X:533
T:Bruise Hill
T:The Five Servants
T:The Ballybunnion Polka
R:Polka
D:Chieftains 8, trk6 #1
S:A rough attempt at the chieftains
Z:Transcription, arrangement, chords:Mike Long
M:2/4
L:1/8
K:D
D/E/|\
"D"F>E FA|"G"G>F GB|"D"A>B cd|"A"e/f/g/e/ "D"dA|\
"G"B>c dB|"D"A/B/A/G/ FA|"G"GE "A"FE|"D"D2 D:|
|:d/e/|\
"D"fd fd|fd f/g/a|"A"e>f ed|"A"e/f/e/d/ "G"Bd|\
"D"A>G FG|"D"A/B/A/G/ "(A)"FA|"G"GE "A"FE|"D"D2 D:|
